X: 118105
T: Mrs RAMSAY
Q: "Strathspey."
R:  Strathspey.
%R: strathspey
B: James Kerr "Merry Melodies" v.1 p.18 s.1 #5
Z: 2017 John Chambers <jc:trillian.mit.edu>
M: C
L: 1/8
K: Em
|:\
vE>vFuG>uA (B<e)e2 | vd>vBuA>uG (F<D) D>uF |\
E>FG>A (B<e)e>uf | vg>ueBd e2-e :|\
uf |\
vg>veuf>u^d e<BB>u^c | d>BA>G F<D D>f |
g>ef>^d e<BB>^c | d>BA>F E2-E>f |\
g>ef>^d e<B B>^c | d>BA>d F<D A>uF |\
E>GF>A G>Be>g | f>da>f e2e2 |]

%%sep 1 1 500
%%sep 1 1 500

